X:1
T:Preambulum primi toni
T:Musica sacra a Bernardinum di Varsovia
T:Piotr Tomasz Harasimiuk
%%score { ( 1 4 ) | ( 2 3 ) }
L:1/8
Q:1/4=72
M:4/4
K:F
V:1 treble nm="Organ" snm="Org."
V:4 treble 
V:2 bass 
V:3 bass 
V:1
"^Adagio" A/G/A/E/ F/E/F/D/ B/A/B/F/ G/F/G/E/ | F/E/F/^C/ D/C/D/F/ G/^F/G/D/ E/D/E/G/ | %2
 F/E/F/G/ A/G/A/B/ A/E/F/^C/ D/A,/B,/G,/ | z8 | z/ a/b/g/ a/f/g/e/ f/f/g/e/ f/d/e/^c/ | %5
 d/A/B/G/ A/F/G/E/ F/F/G/E/ F/D/E/^C/ | D/E/4F/4G/4A/4=B/4^c/4 d/f/e/d/ c2 z/ g/f/e/ | %7
 f2 z/ d/^c/=B/ A/B/4c/4d/4e/4f/4g/4 a/g/f/e/ | f2 z/ f/e/d/ e2 z/ e/d/e/ | %9
 f2 z/ f/e/d/ ^c2 z/ c/d/e/ | f/g/f/e/ d2 e/f/e/d/ e2 | z a ba/g/ af gf/e/ | fABG AFGE | %13
 Fde^c dABG | Afge fabg | afge fABG | AFGE Fd^ce | dABG Afeg | ^f4 g4- | g4 ^f2 e2 | ^f8 |] %21
V:2
 z8 | A,/G,/A,/E,/ F,/E,/F,/D,/ B,/A,/B,/F,/ G,/F,/G,/E,/ | A,/G,/A,/B,/ F,/E,/F,/G,/ A,2 z2 | %3
 F,/D,/E,/F,/ G,/E,/F,/G,/ A,/E,/F,/^C,/ D,/G,,/A,, | z8 | %5
 z/ F,/G,/E,/ F,/D/E/^C/ D/A,/B,/G,/ A,/F,/G,/E,/ | F,2 z2 z4 | %7
 D,/E,/4F,/4G,/4A,/4=B,/4^C/4 D/F/E/D/ C2 z2 | %8
 D,/4D/4^C/4=B,/4A,/4G,/4F,/4E,/4 D,2 C,/4=C/4_B,/4A,/4G,/4F,/4E,/4D,/4 C,2 | %9
 F,,/4F,/4E,/4D,/4C,/4B,,/4A,,/4G,,/4 F,,2 A,,/4A,/4G,/4F,/4E,/4D,/4^C,/4=B,,/4 A,,2 | %10
 D,2 G,,2 ^G,,2 A,,2 | z8 | z8 | z8 | z8 | z8 | z8 | z8 | A,4 B,4 | E4 D2 ^C2 | D8 |] %21
V:3
 D,,8- | D,,8- | D,,8- | D,,4 x4 | D,8- | D,8- | D,2 z2 z4 | x8 | x8 | x8 | x8 | A,,8- | A,,8- | %13
 A,,8- | A,,8- | A,,8- | A,,8- | A,,8 | D,,8- | D,,8- | D,,8 |] %21
V:4
 x8 | x8 | x8 | x8 | z4 z/ A/B/G/ A/F/G/E/ | F x7 | x4 A,/=B,/4^C/4D/4E/4F/4G/4 A/e/d/^c/ | %7
 d2 x2 E2 z/ e/d/^c/ | d2 z2 c2 z2 | A2 z2 A2 A2 | A2 =B2- B2 ^c2 | z4 z A BA/G/ | AFGE FA,B,G, | %13
 A,FGE FFGE | FABG AFGE | FABG AFGE | FA,B,G, A,FEG | FFGE FAGB | A4 d4 | A8- | A8 |] %21

